ecny.svg

<?xml version="1.0" encoding="UTF-8"?>
<svg viewBox="0 0 8 8" version="1.1" xmlns="http://www.w3.org/2000/svg" xmlns:xlink="http://www.w3.org/1999/xlink">
    <title>e-CNY</title>
    <g id="Page-1" stroke="none" stroke-width="1" fill="none" fill-rule="evenodd">
        <path d="M4,0 C5.06086918,0 6.07828504,0.421426741 6.8284306,1.17157231 C7.57857617,1.92171787 8,2.93913372 8,4 C8,4.05694581 7.99875538,4.11388504 7.99630836,4.1707785 L4.47621004,4.1707785 L4.47621004,4.81122144 L6.47618554,4.81122144 L6.47618554,5.57312867 L4.47621004,5.57312867 L4.47621004,7.15363891 C5.73521234,6.96329701 6.76048857,6.04257985 7.08463864,4.81122144 L7.91677572,4.81122144 C7.53217074,6.66823981 5.89642737,8 4,8 C2.93913352,8 1.92171763,7.57857314 1.17157208,6.82842747 C0.421426536,6.0782818 1.42108547e-14,5.06086585 1.42108547e-14,4 C1.42108547e-14,2.93913375 0.421426721,1.92171792 1.17157226,1.17157236 C1.92171779,0.421426797 2.9391336,0 4,0 Z M3.5238382,4.1707785 L0.822983331,4.1707785 C0.903982563,5.67880045 2.03119569,6.92346351 3.5238382,7.15304885 L3.5238382,5.57312867 L1.52381369,5.57312867 L1.52381369,4.81122144 L3.5238382,4.81122144 L3.5238382,4.1707785 Z M1.87924851,1.62849621 C1.35679747,2.09516318 1.00245856,2.72080832 0.870919448,3.40887126 L3.2702298,3.40887126 Z M6.12075023,1.62849621 L4.72976879,3.40887126 L7.12912884,3.40887126 C6.99757636,2.72080189 6.64321957,2.09515594 6.12075023,1.62849621 Z M3.99999961,0.80954798 C3.5097589,0.810532616 3.02633911,0.924478652 2.58726544,1.14254109 L3.99999961,2.95067374 L5.41273442,1.14249164 C4.97365644,0.924446216 4.49023663,0.810517148 3.99999961,0.80954798 Z" id="e-CNY" fill="#DC0017" fill-rule="nonzero"></path>
    </g>
</svg>

<svg viewBox="0 0 8 8" xmlns="http://www.w3.org/2000/svg"><path d="M4 0a4 4 0 0 1 3.996 4.17h-3.52v.641h2v.762h-2v1.58a3.19 3.19 0 0 0 2.609-2.342h.832A4 4 0 1 1 4 0Zm-.476 4.17H.823a3.19 3.19 0 0 0 2.7 2.983v-1.58h-2v-.762h2v-.64ZM1.879 1.629a3.19 3.19 0 0 0-1.008 1.78h2.4Zm4.242 0L4.73 3.408h2.4a3.19 3.19 0 0 0-1.01-1.78ZM4 .81a3.19 3.19 0 0 0-1.413.333L4 2.95l1.413-1.809A3.19 3.19 0 0 0 4 .81Z" fill="#DC0017" fill-rule="nonzero"/></svg>
